.local/share/icons/Gruvbox-Plus-Dark/actions/symbolic/category-search-symbolic.svg

<svg xmlns="http://www.w3.org/2000/svg" width="16" height="16" version="1.1" viewBox="0 0 16 16">
 <path style="fill:#ebdbb2" d="M 8 3 A 4 4 0 0 0 4 7 A 4 4 0 0 0 8 11 A 4 4 0 0 0 10.332031 10.244141 L 13.359375 12.767578 A 1.0001 1.0001 0 1 0 14.640625 11.232422 L 11.611328 8.7089844 A 4 4 0 0 0 12 7 A 4 4 0 0 0 8 3 z M 1 3.0039062 L 1 5.0039062 L 3 5.0039062 L 3 3.0039062 L 1 3.0039062 z M 8 5 A 2 2 0 0 1 10 7 A 2 2 0 0 1 9.96875 7.3398438 A 2 2 0 0 1 8.6894531 8.875 A 2 2 0 0 1 8.4980469 8.9355469 A 2 2 0 0 1 8.3183594 8.9726562 A 2 2 0 0 1 8.2265625 8.984375 A 2 2 0 0 1 8.1113281 8.9960938 A 2 2 0 0 1 8.1035156 8.9960938 A 2 2 0 0 1 8 9 A 2 2 0 0 1 6 7 A 2 2 0 0 1 6.0097656 6.8007812 A 2 2 0 0 1 8 5 z M 1 7.0039062 L 1 9.0039062 L 3 9.0039062 L 3 7.0039062 L 1 7.0039062 z M 1 11.003906 L 1 13.003906 L 3 13.003906 L 3 11.003906 L 1 11.003906 z"/>
</svg>

<svg width="16" height="16" version="1.1" xmlns="http://www.w3.org/2000/svg">
  <defs>
    <style id="current-color-scheme" type="text/css">.ColorScheme-Text { color:#ebdbb2; } .ColorScheme-Highlight { color:#458588; }</style>
  </defs>
  <path class="ColorScheme-Text" d="m8 3c-2.209 0-4 1.791-4 4s1.791 4 4 4c0.8373-0.0017 1.653-0.266 2.332-0.7559l3.027 2.523c1.027 0.902 2.352-0.6856 1.281-1.535l-3.029-2.523c0.2543-0.5339 0.387-1.118 0.3887-1.709 0-2.209-1.791-4-4-4zm-7 0.00391v2h2v-2zm7 1.996c1.105 0 2 0.8954 2 2-0.006071 0.9678-0.7644 1.985-2 2-1.105 0-2-0.8954-2-2-8.374e-4 -0.9254 0.7357-2 2-2zm-7 2.004v2h2v-2zm0 4v2h2v-2z" fill="currentColor"/>
</svg>
